img/logo.svg

<svg width="88" height="20" viewBox="0 0 88 20" fill="none" xmlns="http://www.w3.org/2000/svg">
<path d="M3.29348 17.3915H87.8262L84.5328 20.0002H3.29348H0L3.29348 17.3915Z" fill="url(#paint0_linear)"/>
<path fill-rule="evenodd" clip-rule="evenodd" d="M3.18605 0.539957C3.86989 0.184722 4.6235 0 5.47481 0C7.16346 0 8.573 0.667842 9.42431 2.24509C9.85694 3.0266 10.0802 3.97863 10.0802 5.08697C10.0802 7.30363 9.11728 8.9235 7.76356 9.64818C7.07973 10.0034 6.32611 10.1739 5.47481 10.1739C3.78615 10.1739 2.39057 9.50609 1.51135 7.92885C1.07872 7.14733 0.869385 6.1953 0.869385 5.08697C0.869385 2.8703 1.83234 1.23622 3.18605 0.539957ZM7.44294 2.55748C6.92658 1.98911 6.27065 1.70492 5.47517 1.70492C4.67969 1.70492 4.02377 1.98911 3.49344 2.55748C2.97708 3.12586 2.71192 3.96421 2.71192 5.08676C2.71192 6.2093 2.97708 7.04765 3.49344 7.61603C4.02377 8.18441 4.67969 8.46859 5.47517 8.46859C6.27065 8.46859 6.92658 8.18441 7.44294 7.61603C7.97326 7.04765 8.23842 6.2093 8.23842 5.08676C8.23842 3.96421 7.97326 3.12586 7.44294 2.55748ZM15.5513 6.16714H17.4214C19.4171 6.16714 20.4777 4.95934 20.4777 3.14053C20.4777 1.32173 19.4171 0.113932 17.4214 0.113932H13.7371V10.0605H15.5513V6.16714ZM15.5513 4.4618H17.3516C18.2029 4.4618 18.6355 4.02131 18.6355 3.14033C18.6355 2.25934 18.2029 1.81885 17.3516 1.81885H15.5513V4.4618ZM23.813 0.113932V10.0605H29.9955V8.35538H25.6273V5.9682H29.0186V4.26308H25.6273V1.81906H29.9955V0.113932H23.813ZM39.3599 6.67868V0.113932H41.1742V10.0605H39.2622L35.6756 3.49577V10.0605H33.8613V0.113932H35.7733L39.3599 6.67868ZM52.1777 3.51251L53.8944 3.07707C53.4102 1.11762 51.8696 0 49.6394 0C48.2749 0 47.1304 0.464464 46.1914 1.37888C45.2524 2.29329 44.7828 3.57057 44.7828 5.19619C44.7828 6.82181 45.2524 8.09909 46.1914 9.0135C47.1304 9.92791 48.2749 10.3924 49.6394 10.3924C51.8696 10.3924 53.4102 9.27476 53.8944 7.3153L52.1777 6.87987C51.7229 8.05554 50.8866 8.65064 49.6394 8.65064C48.8031 8.65064 48.0988 8.36035 47.5413 7.76525C46.9984 7.17016 46.7196 6.3138 46.7196 5.19619C46.7196 4.07857 46.9984 3.22222 47.5413 2.62712C48.0988 2.03203 48.8031 1.74174 49.6394 1.74174C50.8866 1.74174 51.7229 2.33683 52.1777 3.51251ZM65.2949 3.00445C65.2949 4.3543 64.6053 5.37031 63.3728 5.73318L66.2192 10.2762H64.0917L61.3333 5.89284H60.3356V10.2762H58.4282V0.116069H62.1696C64.1651 0.116069 65.2949 1.26271 65.2949 3.00445ZM74.5237 10.2762L77.9717 0.116069H75.8589L73.5553 7.63458L71.2517 0.116069H69.1389L72.5869 10.2762H74.5237ZM86.9513 1.84334L85.4107 2.81581C85.0439 2.1046 84.5597 1.74174 83.9874 1.74174C83.4152 1.74174 83.0044 2.13363 83.0044 2.67067C83.0044 3.3093 83.7087 3.78828 84.545 4.18017C85.7775 4.71721 87.4061 5.47196 87.3914 7.22822C87.3914 9.20219 86.1003 10.3924 84.1048 10.3924C83.2098 10.3924 82.4322 10.1166 81.7866 9.57957C81.141 9.02802 80.7302 8.34583 80.5688 7.54754L82.1094 6.58958C82.5055 7.96846 83.1805 8.65064 84.1488 8.65064C85.0439 8.65064 85.484 8.2152 85.484 7.32982C85.484 6.73472 84.8238 6.27026 83.9581 5.9074C82.7403 5.39939 81.1557 4.63012 81.185 2.75775C81.185 1.98849 81.4491 1.33533 81.9773 0.798297C82.5202 0.261261 83.1805 0 83.9874 0C85.3813 0 86.3644 0.609609 86.9513 1.84334ZM62.1842 4.1512H60.3355V1.85791H62.1842C62.9912 1.85791 63.3873 2.23529 63.3873 3.00456C63.3873 3.77383 62.9912 4.1512 62.1842 4.1512Z" fill="white"/>
<defs>
<linearGradient id="paint0_linear" x1="27.2634" y1="20.6406" x2="27.3553" y2="17.6398" gradientUnits="userSpaceOnUse">
<stop stop-color="#4C68C1"/>
<stop offset="1" stop-color="#7C93EC"/>
</linearGradient>
</defs>
</svg>

<svg width="88" height="20" viewBox="0 0 88 20" fill="none" xmlns="http://www.w3.org/2000/svg"><path d="M3.293 17.392h84.533L84.533 20H0l3.293-2.608z" fill="url(#paint0_linear)"/><path fill-rule="evenodd" clip-rule="evenodd" d="M3.186.54A4.867 4.867 0 015.475 0c1.688 0 3.098.668 3.95 2.245.432.782.655 1.734.655 2.842 0 2.217-.963 3.837-2.316 4.561-.684.355-1.438.526-2.29.526-1.688 0-3.083-.668-3.963-2.245C1.08 7.147.87 6.195.87 5.087c0-2.217.963-3.85 2.317-4.547zm4.257 2.017c-.516-.568-1.172-.852-1.968-.852-.795 0-1.451.284-1.982.852-.516.569-.781 1.407-.781 2.53 0 1.122.265 1.96.781 2.529.53.568 1.187.853 1.982.853.796 0 1.452-.285 1.968-.853.53-.568.795-1.407.795-2.53 0-1.122-.265-1.96-.795-2.529zm8.108 3.61h1.87c1.996 0 3.057-1.208 3.057-3.026 0-1.82-1.06-3.027-3.057-3.027h-3.684v9.946h1.814V6.167zm0-1.705h1.8c.852 0 1.285-.44 1.285-1.322 0-.88-.433-1.321-1.284-1.321h-1.8v2.643zM23.813.114v9.946h6.183V8.355h-4.369V5.968h3.392V4.263h-3.392V1.82h4.369V.114h-6.183zM39.36 6.679V.114h1.814v9.946h-1.912l-3.586-6.564v6.564H33.86V.114h1.912l3.587 6.565zm12.818-3.166l1.716-.436C53.41 1.117 51.87 0 49.64 0c-1.364 0-2.509.464-3.448 1.379-.939.914-1.408 2.192-1.408 3.817 0 1.626.47 2.903 1.408 3.818.94.914 2.084 1.378 3.448 1.378 2.23 0 3.771-1.117 4.255-3.077l-1.716-.435c-.455 1.176-1.291 1.77-2.539 1.77-.836 0-1.54-.29-2.098-.885-.543-.595-.821-1.451-.821-2.569 0-1.117.278-1.974.821-2.569.558-.595 1.262-.885 2.098-.885 1.248 0 2.084.595 2.539 1.77zm13.117-.509c0 1.35-.69 2.366-1.922 2.73l2.846 4.542h-2.127l-2.759-4.383h-.997v4.383h-1.908V.116h3.742c1.995 0 3.125 1.147 3.125 2.888zm9.229 7.272L77.972.116h-2.113l-2.304 7.519L71.252.116h-2.113l3.448 10.16h1.937zM86.95 1.843l-1.54.973c-.367-.711-.851-1.074-1.424-1.074-.572 0-.983.392-.983.929 0 .638.705 1.117 1.541 1.51 1.233.536 2.861 1.291 2.846 3.047 0 1.974-1.29 3.164-3.286 3.164-.895 0-1.673-.275-2.318-.812-.646-.552-1.057-1.234-1.218-2.032l1.54-.958c.397 1.378 1.072 2.06 2.04 2.06.895 0 1.335-.435 1.335-1.32 0-.595-.66-1.06-1.526-1.423-1.218-.508-2.802-1.277-2.773-3.15 0-.769.264-1.422.792-1.959C82.52.261 83.18 0 83.987 0c1.394 0 2.377.61 2.964 1.843zM62.184 4.151h-1.848V1.858h1.848c.807 0 1.203.377 1.203 1.147 0 .769-.396 1.146-1.203 1.146z" fill="#fff"/><defs><linearGradient id="paint0_linear" x1="27.263" y1="20.641" x2="27.355" y2="17.64" gradientUnits="userSpaceOnUse"><stop stop-color="#4C68C1"/><stop offset="1" stop-color="#7C93EC"/></linearGradient></defs></svg>
